X: 011
M: C|
L: 1/8
K: F
V: 1
{cce}f>cA>B c>dcA | f>c {d}cB/A/ G<gg>a | f>cA>B c>dcA | {d}cB/A/ GA F<ff>a :|
c<ff>a c<ff>a | g>ba>f e<gg>a | c>ff>c d>^fg>a | b>aga ff {g}fe/d/ |
c<ff>a c<ff>a | b>g {b}ag/f/ eg {a}gf/e/ | f<aA>f d<bB>d | c>B A>G AFFc |]
V: 2 clef=bass middle=d
f2f2 f2f2 | a2f2 c'2c2 | A2f2 f2f2 | c'2c2 f2F2 :|
f2f2 a2f2 | e2f2 c2c2 | A2a2 b3a | g2c'2 f2F2 |


